images/50223060.svg

<?xml version="1.0" encoding="UTF-8"?>
<svg xmlns="http://www.w3.org/2000/svg" xmlns:xlink="http://www.w3.org/1999/xlink" width="300pt" height="300pt" viewBox="0 0 300 300" version="1.1">
<defs>
<g>
<symbol overflow="visible" id="glyph0-0">
<path style="stroke:none;" d="M 0.546875 1.9375 L 0.546875 -7.75 L 6.046875 -7.75 L 6.046875 1.9375 Z M 1.171875 1.328125 L 5.4375 1.328125 L 5.4375 -7.140625 L 1.171875 -7.140625 Z M 1.171875 1.328125 "/>
</symbol>
<symbol overflow="visible" id="glyph0-1">
<path style="stroke:none;" d="M 4.328125 -7.28125 C 3.546875 -7.28125 2.921875 -6.984375 2.453125 -6.390625 C 1.992188 -5.804688 1.765625 -5.007812 1.765625 -4 C 1.765625 -2.988281 1.992188 -2.1875 2.453125 -1.59375 C 2.921875 -1.007812 3.546875 -0.71875 4.328125 -0.71875 C 5.117188 -0.71875 5.742188 -1.007812 6.203125 -1.59375 C 6.660156 -2.1875 6.890625 -2.988281 6.890625 -4 C 6.890625 -5.007812 6.660156 -5.804688 6.203125 -6.390625 C 5.742188 -6.984375 5.117188 -7.28125 4.328125 -7.28125 Z M 4.328125 -8.171875 C 5.453125 -8.171875 6.351562 -7.789062 7.03125 -7.03125 C 7.707031 -6.28125 8.046875 -5.269531 8.046875 -4 C 8.046875 -2.738281 7.707031 -1.726562 7.03125 -0.96875 C 6.351562 -0.21875 5.453125 0.15625 4.328125 0.15625 C 3.203125 0.15625 2.300781 -0.21875 1.625 -0.96875 C 0.957031 -1.71875 0.625 -2.726562 0.625 -4 C 0.625 -5.269531 0.957031 -6.28125 1.625 -7.03125 C 2.300781 -7.789062 3.203125 -8.171875 4.328125 -8.171875 Z M 4.328125 -8.171875 "/>
</symbol>
<symbol overflow="visible" id="glyph0-2">
<path style="stroke:none;" d="M 1.078125 -8.015625 L 2.546875 -8.015625 L 6.09375 -1.3125 L 6.09375 -8.015625 L 7.15625 -8.015625 L 7.15625 0 L 5.6875 0 L 2.125 -6.703125 L 2.125 0 L 1.078125 0 Z M 1.078125 -8.015625 "/>
</symbol>
<symbol overflow="visible" id="glyph0-3">
<path style="stroke:none;" d="M 1.078125 -8.015625 L 2.171875 -8.015625 L 2.171875 -4.734375 L 6.109375 -4.734375 L 6.109375 -8.015625 L 7.1875 -8.015625 L 7.1875 0 L 6.109375 0 L 6.109375 -3.8125 L 2.171875 -3.8125 L 2.171875 0 L 1.078125 0 Z M 1.078125 -8.015625 "/>
</symbol>
<symbol overflow="visible" id="glyph1-0">
<path style="stroke:none;" d="M 0.453125 1.59375 L 0.453125 -6.34375 L 4.953125 -6.34375 L 4.953125 1.59375 Z M 0.953125 1.09375 L 4.453125 1.09375 L 4.453125 -5.84375 L 0.953125 -5.84375 Z M 0.953125 1.09375 "/>
</symbol>
<symbol overflow="visible" id="glyph1-1">
<path style="stroke:none;" d="M 4.140625 -5.640625 L 4.140625 -3.1875 L 6.59375 -3.1875 L 6.59375 -2.453125 L 4.140625 -2.453125 L 4.140625 0 L 3.40625 0 L 3.40625 -2.453125 L 0.953125 -2.453125 L 0.953125 -3.1875 L 3.40625 -3.1875 L 3.40625 -5.640625 Z M 4.140625 -5.640625 "/>
</symbol>
<symbol overflow="visible" id="glyph1-2">
<path style="stroke:none;" d="M 1.734375 -0.75 L 4.828125 -0.75 L 4.828125 0 L 0.65625 0 L 0.65625 -0.75 C 1 -1.09375 1.457031 -1.554688 2.03125 -2.140625 C 2.613281 -2.734375 2.984375 -3.113281 3.140625 -3.28125 C 3.421875 -3.601562 3.613281 -3.875 3.71875 -4.09375 C 3.832031 -4.320312 3.890625 -4.539062 3.890625 -4.75 C 3.890625 -5.101562 3.769531 -5.390625 3.53125 -5.609375 C 3.289062 -5.828125 2.972656 -5.9375 2.578125 -5.9375 C 2.296875 -5.9375 2 -5.882812 1.6875 -5.78125 C 1.382812 -5.6875 1.054688 -5.539062 0.703125 -5.34375 L 0.703125 -6.25 C 1.054688 -6.382812 1.390625 -6.488281 1.703125 -6.5625 C 2.015625 -6.644531 2.300781 -6.6875 2.5625 -6.6875 C 3.238281 -6.6875 3.78125 -6.515625 4.1875 -6.171875 C 4.59375 -5.828125 4.796875 -5.375 4.796875 -4.8125 C 4.796875 -4.539062 4.742188 -4.28125 4.640625 -4.03125 C 4.535156 -3.789062 4.351562 -3.507812 4.09375 -3.1875 C 4.019531 -3.101562 3.785156 -2.859375 3.390625 -2.453125 C 2.992188 -2.046875 2.441406 -1.476562 1.734375 -0.75 Z M 1.734375 -0.75 "/>
</symbol>
</g>
</defs>
<g id="surface21473">
<rect x="0" y="0" width="300" height="300" style="fill:rgb(100%,100%,100%);fill-opacity:1;stroke:none;"/>
<path style="fill:none;stroke-width:1.2;stroke-linecap:butt;stroke-linejoin:miter;stroke:rgb(100%,0%,0%);stroke-opacity:1;stroke-miterlimit:10;" d="M 55.476562 182.816406 L 45.363281 192.886719 "/>
<path style="fill:none;stroke-width:1.2;stroke-linecap:butt;stroke-linejoin:miter;stroke:rgb(0%,0%,0%);stroke-opacity:1;stroke-miterlimit:10;" d="M 45.363281 192.886719 L 35.25 202.957031 "/>
<path style="fill:none;stroke-width:1.2;stroke-linecap:butt;stroke-linejoin:miter;stroke:rgb(100%,0%,0%);stroke-opacity:1;stroke-miterlimit:10;" d="M 55.476562 182.816406 L 69.253906 186.542969 "/>
<path style="fill:none;stroke-width:1.2;stroke-linecap:butt;stroke-linejoin:miter;stroke:rgb(0%,0%,0%);stroke-opacity:1;stroke-miterlimit:10;" d="M 69.253906 186.542969 L 83.03125 190.265625 "/>
<path style=" stroke:none;fill-rule:nonzero;fill:rgb(100%,100%,100%);fill-opacity:1;" d="M 51.476562 176.316406 L 60.476562 176.316406 L 60.476562 189.316406 L 51.476562 189.316406 Z M 51.476562 176.316406 "/>
<g style="fill:rgb(100%,0%,0%);fill-opacity:1;">
  <use xlink:href="#glyph0-1" x="51.476562" y="186.217773"/>
</g>
<path style="fill:none;stroke-width:1.2;stroke-linecap:butt;stroke-linejoin:miter;stroke:rgb(0%,0%,0%);stroke-opacity:1;stroke-miterlimit:10;" d="M 83.03125 190.265625 L 93.148438 180.195312 "/>
<path style="fill:none;stroke-width:1.2;stroke-linecap:butt;stroke-linejoin:miter;stroke:rgb(0%,0%,100%);stroke-opacity:1;stroke-miterlimit:10;" d="M 93.148438 180.195312 L 103.261719 170.128906 "/>
<path style="fill:none;stroke-width:1.2;stroke-linecap:butt;stroke-linejoin:miter;stroke:rgb(0%,0%,0%);stroke-opacity:1;stroke-miterlimit:10;" d="M 89.792969 193.011719 L 97.886719 184.957031 "/>
<path style="fill:none;stroke-width:1.2;stroke-linecap:butt;stroke-linejoin:miter;stroke:rgb(0%,0%,100%);stroke-opacity:1;stroke-miterlimit:10;" d="M 97.886719 184.957031 L 105.976562 176.902344 "/>
<path style="fill:none;stroke-width:1.2;stroke-linecap:butt;stroke-linejoin:miter;stroke:rgb(0%,0%,100%);stroke-opacity:1;stroke-miterlimit:10;" d="M 90.359375 217.855469 L 86.695312 204.058594 "/>
<path style="fill:none;stroke-width:1.2;stroke-linecap:butt;stroke-linejoin:miter;stroke:rgb(0%,0%,0%);stroke-opacity:1;stroke-miterlimit:10;" d="M 86.695312 204.058594 L 83.03125 190.265625 "/>
<path style="fill:none;stroke-width:1.2;stroke-linecap:butt;stroke-linejoin:miter;stroke:rgb(0%,0%,100%);stroke-opacity:1;stroke-miterlimit:10;" d="M 103.261719 170.128906 L 117.039062 173.851562 "/>
<path style="fill:none;stroke-width:1.2;stroke-linecap:butt;stroke-linejoin:miter;stroke:rgb(0%,0%,0%);stroke-opacity:1;stroke-miterlimit:10;" d="M 117.039062 173.851562 L 130.816406 177.578125 "/>
<path style=" stroke:none;fill-rule:nonzero;fill:rgb(100%,100%,100%);fill-opacity:1;" d="M 99.261719 163.628906 L 107.261719 163.628906 L 107.261719 176.628906 L 99.261719 176.628906 Z M 99.261719 163.628906 "/>
<g style="fill:rgb(0%,0%,100%);fill-opacity:1;">
  <use xlink:href="#glyph0-2" x="99.261719" y="173.530273"/>
</g>
<path style="fill:none;stroke-width:1.2;stroke-linecap:butt;stroke-linejoin:miter;stroke:rgb(0%,0%,0%);stroke-opacity:1;stroke-miterlimit:10;" d="M 130.816406 177.578125 L 138.140625 205.164062 "/>
<path style="fill:none;stroke-width:1.2;stroke-linecap:butt;stroke-linejoin:miter;stroke:rgb(0%,0%,0%);stroke-opacity:1;stroke-miterlimit:10;" d="M 125.058594 182.058594 L 130.917969 204.128906 "/>
<path style="fill:none;stroke-width:1.2;stroke-linecap:butt;stroke-linejoin:miter;stroke:rgb(0%,0%,0%);stroke-opacity:1;stroke-miterlimit:10;" d="M 130.816406 177.578125 L 151.042969 157.4375 "/>
<path style="fill:none;stroke-width:1.2;stroke-linecap:butt;stroke-linejoin:miter;stroke:rgb(0%,0%,0%);stroke-opacity:1;stroke-miterlimit:10;" d="M 138.140625 205.164062 L 117.914062 225.300781 "/>
<path style="fill:none;stroke-width:1.2;stroke-linecap:butt;stroke-linejoin:miter;stroke:rgb(0%,0%,0%);stroke-opacity:1;stroke-miterlimit:10;" d="M 117.914062 225.300781 L 104.136719 221.578125 "/>
<path style="fill:none;stroke-width:1.2;stroke-linecap:butt;stroke-linejoin:miter;stroke:rgb(0%,0%,100%);stroke-opacity:1;stroke-miterlimit:10;" d="M 104.136719 221.578125 L 90.359375 217.855469 "/>
<path style="fill:none;stroke-width:1.2;stroke-linecap:butt;stroke-linejoin:miter;stroke:rgb(0%,0%,0%);stroke-opacity:1;stroke-miterlimit:10;" d="M 116.910156 218.074219 L 105.890625 215.09375 "/>
<path style="fill:none;stroke-width:1.2;stroke-linecap:butt;stroke-linejoin:miter;stroke:rgb(0%,0%,100%);stroke-opacity:1;stroke-miterlimit:10;" d="M 105.890625 215.09375 L 94.867188 212.113281 "/>
<path style=" stroke:none;fill-rule:nonzero;fill:rgb(100%,100%,100%);fill-opacity:1;" d="M 86.359375 211.355469 L 94.359375 211.355469 L 94.359375 224.355469 L 86.359375 224.355469 Z M 86.359375 211.355469 "/>
<g style="fill:rgb(0%,0%,100%);fill-opacity:1;">
  <use xlink:href="#glyph0-2" x="86.359375" y="221.256836"/>
</g>
<path style="fill:none;stroke-width:1.2;stroke-linecap:butt;stroke-linejoin:miter;stroke:rgb(0%,0%,0%);stroke-opacity:1;stroke-miterlimit:10;" d="M 151.042969 157.4375 L 165.136719 159.703125 "/>
<path style="fill:none;stroke-width:1.2;stroke-linecap:butt;stroke-linejoin:miter;stroke:rgb(0%,0%,100%);stroke-opacity:1;stroke-miterlimit:10;" d="M 165.136719 159.703125 L 179.226562 161.964844 "/>
<path style="fill:none;stroke-width:1.2;stroke-linecap:butt;stroke-linejoin:miter;stroke:rgb(0%,0%,0%);stroke-opacity:1;stroke-miterlimit:10;" d="M 146.640625 129.234375 L 151.042969 157.4375 "/>
<path style="fill:none;stroke-width:1.2;stroke-linecap:butt;stroke-linejoin:miter;stroke:rgb(0%,0%,0%);stroke-opacity:1;stroke-miterlimit:10;" d="M 153.71875 131.019531 L 157.238281 153.582031 "/>
<path style="fill:none;stroke-width:1.2;stroke-linecap:butt;stroke-linejoin:miter;stroke:rgb(0%,0%,100%);stroke-opacity:1;stroke-miterlimit:10;" d="M 179.226562 161.964844 L 186.972656 173.953125 "/>
<path style="fill:none;stroke-width:1.2;stroke-linecap:butt;stroke-linejoin:miter;stroke:rgb(0%,0%,0%);stroke-opacity:1;stroke-miterlimit:10;" d="M 186.972656 173.953125 L 194.71875 185.9375 "/>
<path style="fill:none;stroke-width:1.2;stroke-linecap:butt;stroke-linejoin:miter;stroke:rgb(0%,0%,0%);stroke-opacity:1;stroke-miterlimit:10;" d="M 192.242188 136.5625 L 185.734375 149.261719 "/>
<path style="fill:none;stroke-width:1.2;stroke-linecap:butt;stroke-linejoin:miter;stroke:rgb(0%,0%,100%);stroke-opacity:1;stroke-miterlimit:10;" d="M 185.734375 149.261719 L 179.226562 161.964844 "/>
<path style=" stroke:none;fill-rule:nonzero;fill:rgb(100%,100%,100%);fill-opacity:1;" d="M 175.226562 155.464844 L 183.226562 155.464844 L 183.226562 168.464844 L 175.226562 168.464844 Z M 175.226562 155.464844 "/>
<g style="fill:rgb(0%,0%,100%);fill-opacity:1;">
  <use xlink:href="#glyph0-2" x="175.226562" y="165.366211"/>
</g>
<path style="fill:none;stroke-width:1.2;stroke-linecap:butt;stroke-linejoin:miter;stroke:rgb(0%,0%,0%);stroke-opacity:1;stroke-miterlimit:10;" d="M 194.71875 185.9375 L 223.226562 184.507812 "/>
<path style="fill:none;stroke-width:1.2;stroke-linecap:butt;stroke-linejoin:miter;stroke:rgb(0%,0%,0%);stroke-opacity:1;stroke-miterlimit:10;" d="M 197.234375 179.085938 L 220.039062 177.941406 "/>
<path style="fill:none;stroke-width:1.2;stroke-linecap:butt;stroke-linejoin:miter;stroke:rgb(0%,0%,0%);stroke-opacity:1;stroke-miterlimit:10;" d="M 223.226562 184.507812 L 236.242188 159.105469 "/>
<path style="fill:none;stroke-width:1.2;stroke-linecap:butt;stroke-linejoin:miter;stroke:rgb(0%,0%,0%);stroke-opacity:1;stroke-miterlimit:10;" d="M 236.242188 159.105469 L 228.496094 147.117188 "/>
<path style="fill:none;stroke-width:1.2;stroke-linecap:butt;stroke-linejoin:miter;stroke:rgb(0%,0%,100%);stroke-opacity:1;stroke-miterlimit:10;" d="M 228.496094 147.117188 L 220.75 135.128906 "/>
<path style="fill:none;stroke-width:1.2;stroke-linecap:butt;stroke-linejoin:miter;stroke:rgb(0%,0%,0%);stroke-opacity:1;stroke-miterlimit:10;" d="M 229.050781 160.351562 L 222.855469 150.761719 "/>
<path style="fill:none;stroke-width:1.2;stroke-linecap:butt;stroke-linejoin:miter;stroke:rgb(0%,0%,100%);stroke-opacity:1;stroke-miterlimit:10;" d="M 222.855469 150.761719 L 216.65625 141.171875 "/>
<path style="fill:none;stroke-width:1.2;stroke-linecap:butt;stroke-linejoin:miter;stroke:rgb(0%,0%,0%);stroke-opacity:1;stroke-miterlimit:10;" d="M 236.242188 159.105469 L 250.496094 158.386719 "/>
<path style="fill:none;stroke-width:1.2;stroke-linecap:butt;stroke-linejoin:miter;stroke:rgb(0%,0%,100%);stroke-opacity:1;stroke-miterlimit:10;" d="M 250.496094 158.386719 L 264.75 157.671875 "/>
<path style="fill:none;stroke-width:1.2;stroke-linecap:butt;stroke-linejoin:miter;stroke:rgb(0%,0%,100%);stroke-opacity:1;stroke-miterlimit:10;" d="M 220.75 135.128906 L 206.496094 135.847656 "/>
<path style="fill:none;stroke-width:1.2;stroke-linecap:butt;stroke-linejoin:miter;stroke:rgb(0%,0%,0%);stroke-opacity:1;stroke-miterlimit:10;" d="M 206.496094 135.847656 L 192.242188 136.5625 "/>
<path style=" stroke:none;fill-rule:nonzero;fill:rgb(100%,100%,100%);fill-opacity:1;" d="M 208.75 127.128906 L 232.75 127.128906 L 232.75 143.128906 L 208.75 143.128906 Z M 208.75 127.128906 "/>
<g style="fill:rgb(0%,0%,100%);fill-opacity:1;">
  <use xlink:href="#glyph0-2" x="208.75" y="140.261719"/>
  <use xlink:href="#glyph0-3" x="216.733398" y="140.261719"/>
</g>
<g style="fill:rgb(0%,0%,100%);fill-opacity:1;">
  <use xlink:href="#glyph1-1" x="224.757812" y="135.378906"/>
</g>
<path style="fill:none;stroke-width:1.2;stroke-linecap:butt;stroke-linejoin:miter;stroke:rgb(0%,0%,0%);stroke-opacity:1;stroke-miterlimit:10;" d="M 192.242188 136.5625 L 182.171875 126.445312 "/>
<path style="fill:none;stroke-width:1.2;stroke-linecap:butt;stroke-linejoin:miter;stroke:rgb(0%,0%,100%);stroke-opacity:1;stroke-miterlimit:10;" d="M 182.171875 126.445312 L 172.101562 116.332031 "/>
<path style="fill:none;stroke-width:1.2;stroke-linecap:butt;stroke-linejoin:miter;stroke:rgb(0%,0%,0%);stroke-opacity:1;stroke-miterlimit:10;" d="M 185.46875 139.277344 L 177.414062 131.1875 "/>
<path style="fill:none;stroke-width:1.2;stroke-linecap:butt;stroke-linejoin:miter;stroke:rgb(0%,0%,100%);stroke-opacity:1;stroke-miterlimit:10;" d="M 177.414062 131.1875 L 169.355469 123.09375 "/>
<path style="fill:none;stroke-width:1.2;stroke-linecap:butt;stroke-linejoin:miter;stroke:rgb(0%,0%,100%);stroke-opacity:1;stroke-miterlimit:10;" d="M 172.101562 116.332031 L 159.371094 122.785156 "/>
<path style="fill:none;stroke-width:1.2;stroke-linecap:butt;stroke-linejoin:miter;stroke:rgb(0%,0%,0%);stroke-opacity:1;stroke-miterlimit:10;" d="M 159.371094 122.785156 L 146.640625 129.234375 "/>
<path style=" stroke:none;fill-rule:nonzero;fill:rgb(100%,100%,100%);fill-opacity:1;" d="M 168.101562 109.832031 L 176.101562 109.832031 L 176.101562 122.832031 L 168.101562 122.832031 Z M 168.101562 109.832031 "/>
<g style="fill:rgb(0%,0%,100%);fill-opacity:1;">
  <use xlink:href="#glyph0-2" x="168.101562" y="119.733398"/>
</g>
<path style="fill:none;stroke-width:1.2;stroke-linecap:butt;stroke-linejoin:miter;stroke:rgb(0%,0%,0%);stroke-opacity:1;stroke-miterlimit:10;" d="M 146.640625 129.234375 L 121.238281 116.21875 "/>
<path style="fill:none;stroke-width:1.2;stroke-linecap:butt;stroke-linejoin:miter;stroke:rgb(0%,0%,0%);stroke-opacity:1;stroke-miterlimit:10;" d="M 121.238281 116.21875 L 119.804688 87.710938 "/>
<path style="fill:none;stroke-width:1.2;stroke-linecap:butt;stroke-linejoin:miter;stroke:rgb(0%,0%,0%);stroke-opacity:1;stroke-miterlimit:10;" d="M 114.386719 113.707031 L 113.242188 90.898438 "/>
<path style="fill:none;stroke-width:1.2;stroke-linecap:butt;stroke-linejoin:miter;stroke:rgb(0%,0%,0%);stroke-opacity:1;stroke-miterlimit:10;" d="M 97.265625 131.714844 L 121.238281 116.21875 "/>
<path style="fill:none;stroke-width:1.2;stroke-linecap:butt;stroke-linejoin:miter;stroke:rgb(0%,0%,0%);stroke-opacity:1;stroke-miterlimit:10;" d="M 119.804688 87.710938 L 94.402344 74.699219 "/>
<path style="fill:none;stroke-width:1.2;stroke-linecap:butt;stroke-linejoin:miter;stroke:rgb(0%,0%,0%);stroke-opacity:1;stroke-miterlimit:10;" d="M 94.402344 74.699219 L 70.429688 90.191406 "/>
<path style="fill:none;stroke-width:1.2;stroke-linecap:butt;stroke-linejoin:miter;stroke:rgb(0%,0%,0%);stroke-opacity:1;stroke-miterlimit:10;" d="M 95.652344 81.886719 L 76.472656 94.28125 "/>
<path style="fill:none;stroke-width:1.2;stroke-linecap:butt;stroke-linejoin:miter;stroke:rgb(0%,0%,0%);stroke-opacity:1;stroke-miterlimit:10;" d="M 70.429688 90.191406 L 71.859375 118.699219 "/>
<path style="fill:none;stroke-width:1.2;stroke-linecap:butt;stroke-linejoin:miter;stroke:rgb(0%,0%,0%);stroke-opacity:1;stroke-miterlimit:10;" d="M 71.859375 118.699219 L 97.265625 131.714844 "/>
<path style="fill:none;stroke-width:1.2;stroke-linecap:butt;stroke-linejoin:miter;stroke:rgb(0%,0%,0%);stroke-opacity:1;stroke-miterlimit:10;" d="M 77.460938 114.023438 L 97.785156 124.433594 "/>
<path style=" stroke:none;fill-rule:nonzero;fill:rgb(100%,100%,100%);fill-opacity:1;" d="M 253.75 149.171875 L 275.75 149.171875 L 275.75 166.171875 L 253.75 166.171875 Z M 253.75 149.171875 "/>
<g style="fill:rgb(0%,0%,100%);fill-opacity:1;">
  <use xlink:href="#glyph0-2" x="253.75" y="159.073242"/>
  <use xlink:href="#glyph0-3" x="261.733398" y="159.073242"/>
</g>
<g style="fill:rgb(0%,0%,100%);fill-opacity:1;">
  <use xlink:href="#glyph1-2" x="269.757812" y="163.956055"/>
</g>
</g>
</svg>

<svg xmlns="http://www.w3.org/2000/svg" xmlns:xlink="http://www.w3.org/1999/xlink" width="300pt" height="300pt" viewBox="0 0 300 300"><defs><symbol overflow="visible"><path d="M.547 1.938V-7.75h5.5v9.688zm.625-.61h4.266v-8.47H1.171zm0 0"/></symbol><symbol overflow="visible" id="a"><path d="M4.328-7.28c-.78 0-1.406.296-1.875.89-.46.585-.687 1.382-.687 2.39 0 1.012.226 1.813.687 2.406.47.586 1.094.875 1.875.875.79 0 1.414-.288 1.875-.874.457-.593.688-1.394.688-2.406 0-1.008-.23-1.805-.687-2.39-.46-.594-1.086-.89-1.875-.89zm0-.892c1.125 0 2.024.383 2.703 1.14C7.708-6.28 8.048-5.27 8.048-4c0 1.262-.34 2.273-1.016 3.03C6.353-.22 5.454.157 4.33.157S2.3-.22 1.625-.97c-.668-.75-1-1.757-1-3.03 0-1.27.332-2.28 1-3.03.676-.76 1.578-1.142 2.703-1.142zm0 0"/></symbol><symbol overflow="visible" id="b"><path d="M1.078-8.016h1.47l3.546 6.704v-6.704h1.062V0H5.688L2.124-6.703V0H1.078zm0 0"/></symbol><symbol overflow="visible" id="c"><path d="M1.078-8.016h1.094v3.282H6.11v-3.282h1.077V0H6.11v-3.813H2.17V0H1.078zm0 0"/></symbol><symbol overflow="visible"><path d="M.453 1.594v-7.938h4.5v7.938zm.5-.5h3.5v-6.938h-3.5zm0 0"/></symbol><symbol overflow="visible" id="d"><path d="M4.14-5.64v2.452h2.454v.735H4.14V0h-.734v-2.453H.953v-.735h2.453V-5.64zm0 0"/></symbol><symbol overflow="visible" id="e"><path d="M1.734-.75h3.094V0H.656v-.75c.344-.344.8-.805 1.375-1.39.583-.594.954-.973 1.11-1.14.282-.322.473-.595.58-.814.112-.226.17-.445.17-.656 0-.352-.12-.64-.36-.86-.24-.218-.557-.327-.952-.327-.28 0-.578.054-.89.156-.305.093-.633.24-.985.436v-.906c.352-.133.688-.238 1-.313.313-.082.598-.125.86-.125.675 0 1.218.172 1.624.516.407.344.61.797.61 1.36 0 .273-.055.53-.156.78-.105.243-.288.524-.546.845-.074.085-.31.328-.703.734-.398.406-.95.976-1.656 1.703zm0 0"/></symbol></defs><g><path fill="#fff" d="M0 0h300v300H0z"/><path d="M55.477 182.816l-10.114 10.07" stroke-width="1.2" stroke="#f00" stroke-miterlimit="10" fill="none"/><path d="M45.363 192.887l-10.113 10.07" stroke-width="1.2" stroke="#000" stroke-miterlimit="10" fill="none"/><path d="M55.477 182.816l13.777 3.727" stroke-width="1.2" stroke="#f00" stroke-miterlimit="10" fill="none"/><path d="M69.254 186.543l13.777 3.723" stroke-width="1.2" stroke="#000" stroke-miterlimit="10" fill="none"/><path d="M51.477 176.316h9v13h-9zm0 0" fill="#fff"/><use xlink:href="#a" x="51.477" y="186.218" fill="#f00"/><path d="M83.03 190.266l10.118-10.07" stroke-width="1.2" stroke="#000" stroke-miterlimit="10" fill="none"/><path d="M93.148 180.195l10.114-10.066" stroke-width="1.2" stroke="#00f" stroke-miterlimit="10" fill="none"/><path d="M89.793 193.012l8.094-8.055" stroke-width="1.2" stroke="#000" stroke-miterlimit="10" fill="none"/><path d="M97.887 184.957l8.09-8.055M90.36 217.855l-3.665-13.796" stroke-width="1.2" stroke="#00f" stroke-miterlimit="10" fill="none"/><path d="M86.695 204.06l-3.664-13.794" stroke-width="1.2" stroke="#000" stroke-miterlimit="10" fill="none"/><path d="M103.262 170.13l13.777 3.722" stroke-width="1.2" stroke="#00f" stroke-miterlimit="10" fill="none"/><path d="M117.04 173.852l13.776 3.726" stroke-width="1.2" stroke="#000" stroke-miterlimit="10" fill="none"/><path d="M99.262 163.63h8v13h-8zm0 0" fill="#fff"/><use xlink:href="#b" x="99.262" y="173.53" fill="#00f"/><path d="M130.816 177.578l7.325 27.586M125.06 182.06l5.858 22.07M130.816 177.578l20.227-20.14M138.14 205.164L117.915 225.3M117.914 225.3l-13.777-3.722" stroke-width="1.2" stroke="#000" stroke-miterlimit="10" fill="none"/><path d="M104.137 221.578l-13.778-3.723" stroke-width="1.2" stroke="#00f" stroke-miterlimit="10" fill="none"/><path d="M116.91 218.074l-11.02-2.98" stroke-width="1.2" stroke="#000" stroke-miterlimit="10" fill="none"/><path d="M105.89 215.094l-11.023-2.98" stroke-width="1.2" stroke="#00f" stroke-miterlimit="10" fill="none"/><path d="M86.36 211.355h8v13h-8zm0 0" fill="#fff"/><use xlink:href="#b" x="86.359" y="221.257" fill="#00f"/><path d="M151.043 157.438l14.094 2.265" stroke-width="1.2" stroke="#000" stroke-miterlimit="10" fill="none"/><path d="M165.137 159.703l14.09 2.262" stroke-width="1.2" stroke="#00f" stroke-miterlimit="10" fill="none"/><path d="M146.64 129.234l4.403 28.203M153.72 131.02l3.518 22.562" stroke-width="1.2" stroke="#000" stroke-miterlimit="10" fill="none"/><path d="M179.227 161.965l7.746 11.988" stroke-width="1.2" stroke="#00f" stroke-miterlimit="10" fill="none"/><path d="M186.973 173.953l7.746 11.984M192.242 136.563l-6.508 12.7" stroke-width="1.2" stroke="#000" stroke-miterlimit="10" fill="none"/><path d="M185.734 149.262l-6.507 12.703" stroke-width="1.2" stroke="#00f" stroke-miterlimit="10" fill="none"/><path d="M175.227 155.465h8v13h-8zm0 0" fill="#fff"/><use xlink:href="#b" x="175.227" y="165.366" fill="#00f"/><path d="M194.72 185.938l28.507-1.43M197.234 179.086l22.805-1.145M223.227 184.508l13.015-25.403M236.242 159.105l-7.746-11.988" stroke-width="1.2" stroke="#000" stroke-miterlimit="10" fill="none"/><path d="M228.496 147.117l-7.746-11.988" stroke-width="1.2" stroke="#00f" stroke-miterlimit="10" fill="none"/><path d="M229.05 160.352l-6.195-9.59" stroke-width="1.2" stroke="#000" stroke-miterlimit="10" fill="none"/><path d="M222.855 150.762l-6.2-9.59" stroke-width="1.2" stroke="#00f" stroke-miterlimit="10" fill="none"/><path d="M236.242 159.105l14.254-.718" stroke-width="1.2" stroke="#000" stroke-miterlimit="10" fill="none"/><path d="M250.496 158.387l14.254-.715M220.75 135.13l-14.254.718" stroke-width="1.2" stroke="#00f" stroke-miterlimit="10" fill="none"/><path d="M206.496 135.848l-14.254.714" stroke-width="1.2" stroke="#000" stroke-miterlimit="10" fill="none"/><path d="M208.75 127.13h24v16h-24zm0 0" fill="#fff"/><g fill="#00f"><use xlink:href="#b" x="208.75" y="140.262"/><use xlink:href="#c" x="216.733" y="140.262"/></g><use xlink:href="#d" x="224.758" y="135.379" fill="#00f"/><path d="M192.242 136.563l-10.07-10.118" stroke-width="1.2" stroke="#000" stroke-miterlimit="10" fill="none"/><path d="M182.172 126.445l-10.07-10.113" stroke-width="1.2" stroke="#00f" stroke-miterlimit="10" fill="none"/><path d="M185.47 139.277l-8.056-8.09" stroke-width="1.2" stroke="#000" stroke-miterlimit="10" fill="none"/><path d="M177.414 131.188l-8.06-8.094M172.102 116.332l-12.73 6.453" stroke-width="1.2" stroke="#00f" stroke-miterlimit="10" fill="none"/><path d="M159.37 122.785l-12.73 6.45" stroke-width="1.2" stroke="#000" stroke-miterlimit="10" fill="none"/><path d="M168.102 109.832h8v13h-8zm0 0" fill="#fff"/><use xlink:href="#b" x="168.102" y="119.733" fill="#00f"/><path d="M146.64 129.234L121.24 116.22M121.238 116.22l-1.433-28.51M114.387 113.707l-1.145-22.81M97.266 131.715l23.972-15.496M119.805 87.71L94.402 74.7M94.402 74.7L70.43 90.19M95.652 81.887L76.472 94.28M70.43 90.19l1.43 28.51M71.86 118.7l25.406 13.015M77.46 114.023l20.325 10.41" stroke-width="1.2" stroke="#000" stroke-miterlimit="10" fill="none"/><path d="M253.75 149.172h22v17h-22zm0 0" fill="#fff"/><g fill="#00f"><use xlink:href="#b" x="253.75" y="159.073"/><use xlink:href="#c" x="261.733" y="159.073"/></g><use xlink:href="#e" x="269.758" y="163.956" fill="#00f"/></g></svg>
